lib/flags/s/222.svg

<svg xmlns="http://www.w3.org/2000/svg" fill="none" viewBox="0 0 16 12"><mask id="222_svg__a" width="16" height="12" x="0" y="0" mask-type="alpha" maskUnits="userSpaceOnUse"><path fill="#fff" d="M0 0H16V12H0z"/></mask><g mask="url(#222_svg__a)"><path fill="#F7FCFF" fill-rule="evenodd" d="M0 0V12H16V0H0Z" clip-rule="evenodd"/><mask id="222_svg__b" width="16" height="12" x="0" y="0" mask-type="alpha" maskUnits="userSpaceOnUse"><path fill="#fff" fill-rule="evenodd" d="M0 0V12H16V0H0Z" clip-rule="evenodd"/></mask><g mask="url(#222_svg__b)"><path fill="#3D58DB" fill-rule="evenodd" d="M0 0V4H16V0H0zM0 8V12H16V8H0z" clip-rule="evenodd"/><path stroke="#E8AA00" stroke-width=".5" d="M9.71271 5.92905C9.71271 6.9347 8.89747 7.74995 7.89182 7.74995C6.88617 7.74995 6.07092 6.9347 6.07092 5.92905C6.07092 4.9234 6.88617 4.10815 7.89182 4.10815C8.89747 4.10815 9.71271 4.9234 9.71271 5.92905Z"/><path fill="#1E601B" fill-rule="evenodd" d="M6.90535 4.83105C6.90535 4.83105 6.42908 5.61489 6.42908 6.15299C6.42908 6.69109 6.99917 7.36743 7.89611 7.36743C8.77101 7.36743 9.39985 6.84482 9.41887 6.15299C9.43789 5.46115 8.94821 4.96864 8.94821 4.96864C8.94821 4.96864 9.22535 5.96469 9.08678 6.36831C8.94821 6.77193 8.49969 7.26026 7.89611 7.19809C7.29252 7.13592 6.71971 6.393 6.71971 6.15299C6.71971 5.91298 6.90535 4.83105 6.90535 4.83105Z" clip-rule="evenodd"/><path stroke="#188396" stroke-width=".5" d="M7.08026 6.16429H8.68391"/><path stroke="#E8AA00" stroke-width=".5" d="M7.22949 5.90306H8.60926M8.52479 6.20567H7.29669L7.91635 5.17751 8.52479 6.20567z"/></g></g></svg>

<svg xmlns="http://www.w3.org/2000/svg" fill="none" viewBox="0 0 16 12"><mask id="222_svg__a" width="16" height="12" x="0" y="0" maskUnits="userSpaceOnUse"><path fill="#fff" d="M0 0h16v12H0z"/></mask><g mask="url(#222_svg__a)"><path fill="#F7FCFF" fill-rule="evenodd" d="M0 0v12h16V0H0z" clip-rule="evenodd"/><mask id="222_svg__b" width="16" height="12" x="0" y="0" maskUnits="userSpaceOnUse"><path fill="#fff" fill-rule="evenodd" d="M0 0v12h16V0H0z" clip-rule="evenodd"/></mask><g mask="url(#222_svg__b)"><path fill="#3D58DB" fill-rule="evenodd" d="M0 0v4h16V0H0zm0 8v4h16V8H0z" clip-rule="evenodd"/><path stroke="#E8AA00" stroke-width=".5" d="M9.713 5.93a1.82 1.82 0 11-3.642 0 1.82 1.82 0 013.642 0z"/><path fill="#1E601B" fill-rule="evenodd" d="M6.905 4.831s-.476.784-.476 1.322S7 7.368 7.896 7.368c.875 0 1.504-.523 1.523-1.215.019-.692-.47-1.184-.47-1.184s.276.996.138 1.4c-.139.403-.587.891-1.19.83-.604-.063-1.177-.806-1.177-1.046s.185-1.322.185-1.322z" clip-rule="evenodd"/><path stroke="#188396" stroke-width=".5" d="M7.08 6.164h1.604"/><path stroke="#E8AA00" stroke-width=".5" d="M7.23 5.903h1.38m-.085.303H7.297l.62-1.029.608 1.029z"/></g></g></svg>
